<?xml version="1.0" encoding="UTF-8"?>
<map version="1.10" tiledversion="1.12.2" orientation="orthogonal" renderorder="right-down" width="30" height="20" tilewidth="16" tileheight="16" infinite="0" nextlayerid="4" nextobjectid="1">
 <tileset firstgid="1" source="../tilesets/walls.tsx"/>
 <tileset firstgid="225" source="../tilesets/grounds.tsx"/>
 <tileset firstgid="433" source="../tilesets/props.tsx"/>
 <layer id="2" name="ground" width="30" height="20">
  <data encoding="csv">
43,43,43,43,43,43,43,43,43,43,43,43,43,43,43,43,43,43,43,43,43,43,43,43,43,43,43,43,43,43,
43,43,43,43,43,43,43,43,43,43,43,43,43,43,43,43,43,43,43,43,43,43,43,43,43,43,43,43,43,43,
43,43,43,43,43,43,43,43,43,43,43,43,43,43,43,43,43,43,43,43,43,43,43,43,43,43,43,43,43,43,
43,43,43,43,43,43,43,43,43,43,43,285,287,287,287,287,287,287,287,287,288,43,43,43,43,43,43,43,43,43,
43,43,43,43,43,43,43,43,43,43,43,298,312,312,312,312,302,312,312,312,314,43,43,43,43,43,43,43,43,43,
43,43,43,43,43,43,43,43,43,43,43,298,312,312,312,312,312,312,312,312,314,43,43,43,43,43,43,43,43,43,
43,43,43,43,43,43,43,43,43,43,43,298,312,312,312,312,312,312,312,312,314,43,43,43,43,43,43,43,43,43,
43,43,285,287,287,287,287,287,287,287,287,295,302,312,312,312,312,312,312,312,296,287,287,287,287,287,287,288,43,43,
43,43,298,312,312,312,312,312,312,312,312,312,312,312,312,312,312,312,302,312,312,312,312,312,312,312,312,314,43,43,
43,43,298,312,302,312,312,312,312,312,312,312,312,312,312,312,312,312,312,312,312,312,312,312,312,312,312,314,43,43,
43,43,298,312,312,312,312,302,312,312,289,312,312,302,312,312,312,312,302,312,312,312,312,312,312,312,312,314,43,43,
43,43,298,312,312,312,312,312,312,312,312,312,312,312,312,312,312,312,312,312,312,312,312,312,312,302,312,314,43,43,
43,43,298,312,312,312,302,312,312,312,312,312,312,312,312,312,302,312,312,312,312,312,312,312,312,312,312,314,43,43,
43,43,298,302,312,312,312,312,312,312,302,312,312,312,312,312,312,312,312,302,312,312,312,312,312,309,325,327,43,43,
43,43,298,312,312,312,312,312,312,312,312,309,325,325,325,325,325,308,312,302,312,312,289,312,312,314,43,43,43,43,
43,43,298,312,312,312,312,302,312,312,312,314,43,43,43,43,43,298,309,325,325,325,325,325,325,327,43,43,43,43,
43,43,298,312,312,312,312,312,312,312,312,314,43,43,43,43,43,298,314,43,43,43,43,43,43,43,43,43,43,43,
43,43,324,325,325,325,325,325,325,325,325,327,43,43,43,43,43,324,327,43,43,43,43,43,43,43,43,43,43,43,
43,43,43,43,43,43,43,43,43,43,43,43,43,43,43,43,43,43,43,43,43,43,43,43,43,43,43,43,43,43,
43,43,43,43,43,43,43,43,43,43,43,43,43,43,43,43,43,43,43,43,43,43,43,43,43,43,43,43,43,43
</data>
 </layer>
 <layer id="1" name="wall" width="30" height="20">
  <data encoding="csv">
0,0,43,43,43,43,43,43,43,43,43,43,43,43,43,43,43,43,43,43,43,43,43,43,43,43,43,43,43,43,
43,43,0,0,43,43,43,43,43,43,43,43,43,43,43,43,43,43,43,43,43,43,43,43,43,43,43,43,43,43,
43,43,43,0,0,0,43,43,43,43,44,4,4,4,4,4,4,4,4,4,4,1,43,43,43,43,43,43,43,43,
43,43,43,43,43,0,43,43,43,43,2,0,0,0,0,0,0,0,0,0,0,32,43,43,43,43,43,43,43,43,
43,43,43,43,43,43,43,43,43,43,2,0,0,0,0,0,0,0,0,0,0,32,43,43,43,43,43,43,43,43,
43,43,43,43,43,43,43,43,43,43,2,0,0,0,0,0,0,0,0,0,0,32,43,43,43,43,43,43,43,43,
43,44,4,4,4,4,4,4,4,4,16,0,0,0,0,0,0,0,0,0,0,3,4,4,4,4,4,4,1,43,
43,2,0,0,0,0,0,0,0,0,0,0,0,0,0,0,0,0,0,0,0,0,0,0,0,0,0,0,32,43,
43,2,0,0,0,0,0,0,0,0,0,0,0,0,0,0,0,0,0,0,0,0,0,0,0,0,0,0,32,43,
43,2,0,0,0,0,0,0,0,0,0,0,0,0,0,0,0,0,0,0,0,0,0,0,0,0,0,0,32,43,
43,2,0,0,0,0,0,0,0,0,0,0,0,0,0,0,0,0,0,0,0,0,0,0,0,0,0,0,32,43,
43,2,0,0,0,0,0,0,0,0,0,0,0,0,0,0,0,0,0,0,0,0,0,0,0,0,0,0,32,43,
43,2,0,0,0,0,0,0,0,0,0,0,0,0,0,0,0,0,0,0,0,0,0,0,0,0,0,0,32,43,
43,2,0,0,0,0,0,0,0,0,0,0,0,0,0,0,0,0,0,0,0,0,0,0,0,0,0,0,32,43,
43,2,0,0,0,0,0,0,0,0,0,0,0,0,0,0,0,0,0,0,0,0,0,0,0,0,18,30,46,43,
43,2,0,0,0,0,0,0,0,0,0,0,18,30,30,30,31,0,0,0,0,0,0,0,0,0,32,43,43,43,
43,2,0,0,0,0,0,0,0,0,0,0,32,43,43,43,2,0,0,18,30,30,30,30,30,30,46,43,43,43,
43,2,0,0,0,0,0,0,0,0,0,0,32,43,43,43,2,0,0,32,43,43,43,43,43,43,43,43,43,43,
43,29,30,30,30,30,30,30,30,30,30,30,46,43,43,43,29,30,30,46,43,43,43,43,43,43,43,43,43,43,
43,43,43,43,43,43,43,43,43,43,43,43,43,43,43,43,43,43,43,43,43,43,43,43,43,43,43,43,43,43
</data>
 </layer>
 <layer id="3" name="props" width="30" height="20">
  <data encoding="csv">
0,0,0,0,0,0,0,0,0,0,0,0,0,0,0,0,0,0,0,0,0,0,0,0,0,0,0,0,0,0,
0,0,0,0,0,0,0,0,0,0,0,0,0,0,0,0,0,0,0,0,0,0,0,0,0,0,0,0,0,0,
0,0,0,0,0,0,0,0,0,0,0,0,0,438,449,0,0,449,438,0,0,0,0,0,0,0,0,0,0,0,
0,0,0,0,0,0,0,0,0,0,0,0,0,0,468,0,0,468,0,0,0,0,0,0,0,0,0,0,0,0,
0,0,0,0,0,0,0,0,0,0,0,0,0,0,0,0,0,0,0,0,0,0,0,0,0,0,0,0,0,0,
0,0,0,0,0,0,0,0,0,0,0,0,0,0,0,0,0,0,0,0,0,0,0,0,0,0,0,0,0,0,
0,0,0,448,448,0,0,0,0,0,0,0,0,0,0,0,0,0,0,0,0,0,0,0,0,0,0,0,0,0,
0,0,0,467,467,0,0,0,0,0,0,0,0,0,0,0,0,0,471,0,0,0,0,0,0,493,0,454,0,0,
0,0,0,0,0,0,0,0,0,0,0,0,0,490,0,0,0,0,0,0,0,0,0,0,0,0,0,0,0,0,
0,0,0,0,0,0,0,0,0,0,0,0,0,0,0,0,0,0,0,0,0,0,474,0,0,0,0,0,0,0,
0,0,0,0,0,0,0,493,0,0,0,0,0,0,0,0,0,0,0,0,0,435,0,0,0,0,0,0,0,0,
0,0,0,0,0,0,0,0,0,0,0,0,0,0,0,455,0,0,0,0,0,0,0,0,0,0,0,0,0,0,
0,0,0,493,0,0,0,0,0,0,0,0,0,0,0,0,0,0,0,0,0,0,0,0,0,0,0,0,0,0,
0,0,0,0,0,0,0,0,0,490,0,0,0,0,0,0,0,0,0,530,0,0,0,0,0,493,0,0,0,0,
0,0,0,0,0,445,446,0,0,0,0,0,0,0,0,0,0,0,0,0,0,0,0,0,0,0,0,0,0,0,
0,0,0,0,0,491,0,0,0,0,0,0,0,0,0,0,0,0,0,0,0,0,0,0,0,0,0,0,0,0,
0,0,0,0,0,0,0,0,0,0,0,0,0,0,0,0,0,0,0,0,0,0,0,0,0,0,0,0,0,0,
0,0,0,0,0,0,0,0,0,0,0,0,0,0,0,0,0,455,0,0,0,0,0,0,0,0,0,0,0,0,
0,0,0,0,0,0,0,0,0,0,0,0,0,0,0,0,0,0,0,0,0,0,0,0,0,0,0,0,0,0,
0,0,0,0,0,0,0,0,0,0,0,0,0,0,0,0,0,0,0,0,0,0,0,0,0,0,0,0,0,0
</data>
 </layer>
</map>
